X: 6846
T: Charlie Lennon's Scottish Concerto
R: strathspey
M: 4/4
K: Gmajor
|:G2 G2 GBDG|BDGB GBAG|c3e dBgB|cAAG AEGA|
G3D GBdc|BDGF GBAG|cefg defg|1 (3dcB cA G4:|2 (3dcB cA GABd||
|:e3d egfe|dBge dBGB|ceAc BDGB|cedB ABcd|
ecgf e3d|cd e2 dBGE|DBBD (3GAB ce|1 FGAB GABd:|2 FGAB G4||

